X:1
T:Flapjack
S:An idea from Lady Walpole's Reel
M:4/4
L:1/4
K:F
[ac]|"C"[g3/B3/][f/B/] [eB][dB]|"F"[c3/A3/][c/A/] [gA][cA]|\
"C"[c3/B3/][c/B/] [gB][cB]|"F"[c3/A3/][c/A/] [fA][ac]|
"C"[g3/B3/][f/B/] [eB][dB]|"F"[c3/A3/][c/A/] [gA][cA]|\
"C"[c3/B3/][c/B/] [dB][eB]|[1 "F"[f2A2] [fA]:|[2 "F"[f2A2] [fA]c|
|:"F"A/d/c/A/ d/c/A-|A/c/f/c/ a/c/f/A/|\
"F"A/d/c/A/ d/c/A-|A/c/f/c/ a/c/f/A/|
"F"A/d/c/A/ d/c/A|"C"=B/c/e/c/ g/c/_b/=B/|\
"C"=B/c/e/c/ g/c/_b/=B/|"C"[ac][gB] "F"[f2A2]:|
